static/assets/svg/human/humanClothes/female_pants2_stickers/female_pants2_sticker7.svg

<svg class="bottomOverlay" width="86" height="380" viewBox="202.715 584.407 86.593 380.048" preserveAspectRatio="xMidYMax" xmlns="http://www.w3.org/2000/svg"><path d="M232.043 751.824c-19.145 9.049-21.181 33.731-6.11 74.043 6.186 16.547 9.445 29.71 8.554 48.129-.082 1.694.326.049 4.278 3.085 0 0 5.185-8.552-17.72-84.534-6.634-22.006 12.125-39.343 10.998-40.723zM264.427 757.934c22.607 34.013 23.698 56.872 18.33 77.598-4.423 17.077-8.089 40.092-4.888 60.49.307 1.96-11.65-3.15-6.721-2.444 3.449.494-3.679-36.574 9.165-58.657 8.458-14.542-4.541-61.717-20.774-76.376" stroke="#000" fill="#7222fd"/></svg>

<svg class="bottomOverlay" width="86" height="380" viewBox="202.715 584.407 86.5933 380.048" preserveAspectRatio="xMidYMax" xmlns="http://www.w3.org/2000/svg">  <defs id="svgEditorDefs">    <path id="svgEditorClosePathDefs" class="clothes" fill="black" style="stroke-width: 0px; stroke: none;"/>  </defs>  <path style="stroke: rgb(0, 0, 0); fill: rgb(114, 34, 253);" d="M 232.043 751.824 C 212.898 760.873 210.862 785.555 225.933 825.867 C 232.119 842.414 235.378 855.577 234.487 873.996 C 234.405 875.69 234.813 874.045 238.765 877.081 C 238.765 877.081 243.95 868.529 221.045 792.547 C 214.411 770.541 233.17 753.204 232.043 751.824 Z"/>  <path style="stroke: rgb(0, 0, 0); fill: rgb(114, 34, 253);" d="M 264.427 757.934 C 287.034 791.947 288.125 814.806 282.757 835.532 C 278.334 852.609 274.668 875.624 277.869 896.022 C 278.176 897.982 266.219 892.872 271.148 893.578 C 274.597 894.072 267.469 857.004 280.313 834.921 C 288.771 820.379 275.772 773.204 259.539 758.545"/></svg>
